X: 10225
T: Dixon's Slide
R: hornpipe
M: 4/4
K: Amajor
|:ed|c>eA>c E>AC>E|(3A,CE (3Ace a2 ba|g>be>g B>eG>B|(3EGB (3egb e'2e>d
c>eA>c E>AC>E|(3A,CE (3Ace a>c'b>a|g>be>g f>a^d>f|e2e2e2:|
|:z2|f>A,D>F A>df>a|e>A,C>E A>ce>a|g>EG>B e>gb>a|g>fe>B c>d e2|
f>A,D>F A>df>a|e>A,C>E A>ce>a|g>eb>g e>dB>e|A2A2 A2:|

